flaticon/game/pawn.svg

<svg xmlns="http://www.w3.org/2000/svg" width="32" height="32" viewBox="0 0 24 24">
    <path d="M 17.601562 21.199219 L 17.601562 20.460938 C 17.601562 19.554688 16.863281 18.8125 15.957031 18.800781 L 15.824219 17.601562 L 15.511719 14.800781 L 15.246094 12.398438 L 15.800781 12.398438 C 16.792969 12.398438 17.601562 11.59375 17.601562 10.601562 C 17.601562 9.609375 16.792969 8.800781 15.800781 8.800781 L 14 8.800781 L 14 7.457031 C 15.195312 6.765625 16 5.476562 16 4 C 16 1.792969 14.207031 0 12 0 C 9.792969 0 8 1.792969 8 4 C 8 5.476562 8.804688 6.765625 10 7.457031 L 10 8.800781 L 8.199219 8.800781 C 7.207031 8.800781 6.398438 9.609375 6.398438 10.601562 C 6.398438 11.59375 7.207031 12.398438 8.199219 12.398438 L 8.753906 12.398438 L 8.042969 18.800781 C 7.136719 18.8125 6.398438 19.554688 6.398438 20.460938 L 6.398438 21.199219 L 5.601562 21.199219 L 5.601562 24 L 18.398438 24 L 18.398438 21.199219 Z M 15.152344 18.800781 L 8.847656 18.800781 L 8.980469 17.601562 L 15.019531 17.601562 Z M 14.929688 16.800781 L 9.070312 16.800781 L 9.203125 15.601562 L 14.796875 15.601562 Z M 8.800781 4 C 8.800781 2.234375 10.234375 0.800781 12 0.800781 C 13.765625 0.800781 15.199219 2.234375 15.199219 4 C 15.199219 5.210938 14.523438 6.265625 13.53125 6.808594 L 13.476562 6.835938 C 13.453125 6.847656 13.429688 6.859375 13.40625 6.871094 C 13.304688 6.921875 13.199219 6.964844 13.09375 7.003906 C 13.085938 7.007812 13.074219 7.011719 13.066406 7.015625 C 12.957031 7.050781 12.847656 7.085938 12.738281 7.109375 C 12.734375 7.113281 12.726562 7.113281 12.71875 7.117188 C 12.246094 7.226562 11.753906 7.226562 11.28125 7.117188 C 11.273438 7.113281 11.269531 7.113281 11.261719 7.109375 C 11.152344 7.085938 11.042969 7.050781 10.9375 7.015625 C 10.925781 7.011719 10.914062 7.007812 10.90625 7.003906 C 10.800781 6.964844 10.695312 6.921875 10.59375 6.871094 C 10.570312 6.859375 10.546875 6.847656 10.527344 6.835938 L 10.46875 6.808594 C 9.476562 6.265625 8.800781 5.210938 8.800781 4 Z M 10.800781 7.816406 C 10.84375 7.828125 10.886719 7.839844 10.933594 7.851562 C 11 7.871094 11.070312 7.890625 11.140625 7.902344 C 11.1875 7.914062 11.234375 7.921875 11.285156 7.933594 C 11.359375 7.945312 11.433594 7.957031 11.507812 7.964844 C 11.550781 7.972656 11.597656 7.976562 11.640625 7.980469 C 11.75 7.992188 11.859375 7.996094 11.96875 8 C 11.980469 8 11.988281 8 12 8 C 12.011719 8 12.019531 8 12.03125 8 C 12.140625 7.996094 12.25 7.992188 12.359375 7.980469 C 12.402344 7.976562 12.449219 7.972656 12.492188 7.964844 C 12.566406 7.957031 12.640625 7.945312 12.714844 7.933594 C 12.765625 7.921875 12.8125 7.914062 12.859375 7.902344 C 12.929688 7.886719 13 7.871094 13.070312 7.851562 C 13.113281 7.839844 13.15625 7.828125 13.199219 7.816406 L 13.199219 8.800781 L 10.800781 8.800781 Z M 8.199219 11.601562 C 7.648438 11.601562 7.199219 11.152344 7.199219 10.601562 C 7.199219 10.046875 7.648438 9.601562 8.199219 9.601562 L 15.800781 9.601562 C 16.351562 9.601562 16.800781 10.046875 16.800781 10.601562 C 16.800781 11.152344 16.351562 11.601562 15.800781 11.601562 Z M 14.441406 12.398438 L 14.707031 14.800781 L 9.292969 14.800781 L 9.558594 12.398438 Z M 7.199219 20.460938 C 7.199219 19.988281 7.585938 19.601562 8.0625 19.601562 L 15.9375 19.601562 C 16.414062 19.601562 16.800781 19.988281 16.800781 20.460938 L 16.800781 21.199219 L 7.199219 21.199219 Z M 17.601562 23.199219 L 6.398438 23.199219 L 6.398438 22 L 17.601562 22 Z M 17.601562 23.199219"/>
    <path d="M 10.800781 3.601562 C 10.800781 3.160156 11.160156 2.800781 11.601562 2.800781 C 11.820312 2.800781 12 2.621094 12 2.398438 C 12 2.179688 11.820312 2 11.601562 2 C 10.71875 2 10 2.71875 10 3.601562 C 10 3.820312 10.179688 4 10.398438 4 C 10.621094 4 10.800781 3.820312 10.800781 3.601562 Z M 10.800781 3.601562"/>
</svg>

<svg xmlns="http://www.w3.org/2000/svg" width="32" height="32" viewBox="0 0 24 24">
    <path d="M17.602 21.2v-.74c0-.905-.739-1.648-1.645-1.66l-.133-1.198-.312-2.801-.266-2.403h.555a1.8 1.8 0 0 0 1.8-1.796c0-.993-.808-1.801-1.8-1.801H14V7.457A3.99 3.99 0 0 0 16 4c0-2.207-1.793-4-4-4S8 1.793 8 4a3.99 3.99 0 0 0 2 3.457v1.344H8.2c-.993 0-1.802.808-1.802 1.8A1.8 1.8 0 0 0 8.2 12.399h.555l-.711 6.403a1.668 1.668 0 0 0-1.645 1.66v.738h-.796V24h12.796v-2.8zm-2.45-2.4H8.848l.132-1.198h6.04zm-.222-2H9.07l.133-1.198h5.594zM8.8 4A3.2 3.2 0 0 1 12 .8 3.2 3.2 0 0 1 15.2 4c0 1.21-.677 2.266-1.669 2.809l-.054.027-.07.035c-.102.05-.208.094-.313.133l-.028.012c-.109.035-.218.07-.328.093-.004.004-.011.004-.02.008a3.19 3.19 0 0 1-1.437 0l-.02-.008a3.079 3.079 0 0 1-.734-.273l-.058-.027A3.202 3.202 0 0 1 8.8 4zm2 3.816l.134.036c.066.02.136.039.207.05.046.012.093.02.144.032.074.011.149.023.223.03a4.62 4.62 0 0 0 .46.035l.032.001h.031a4.62 4.62 0 0 0 .328-.02c.043-.003.09-.007.133-.015.074-.008.149-.02.223-.031.05-.012.098-.02.144-.032a4.131 4.131 0 0 0 .34-.086v.985h-2.398zm-2.6 3.786a1 1 0 1 1 0-2h7.6a1 1 0 1 1 0 2zm6.241.796l.266 2.403H9.293l.266-2.403zM7.2 20.461c0-.473.387-.86.864-.86h7.874c.477 0 .864.387.864.86v.738H7.199zm10.403 2.738H6.398V22h11.204zm0 0"/>
    <path d="M10.8 3.602c0-.442.36-.801.802-.801a.401.401 0 0 0 0-.801C10.719 2 10 2.719 10 3.602a.4.4 0 0 0 .8 0zm0 0"/>
</svg>
